X:36
T:She's  o'er young to Marry yet
M:C|
L:1/8
B:Thompson's Compleat Collection of 200 Favourite Country Dances, vol. 1 (London, 1757)
Z:Transcribed and edited by Fynnian Titford-Mock, 2007
Z:abc's:AK/Fiddler's Companion
K:C
C|E G2 A cdec|cAGA dedD|E G2 A cdef|e/f/g de cCC:|
|:g|ecgc efga|ecgc e d2g|ecgc efga|ecdB cCC:|

